X: 606
T: Gold Rush
C:Bill Monroe
B: jims roots
M:4/4
L:1/8
Q: 1/4=100
K:A
V:1 
%N:trans Jim Kendrick
AFEF ABcd |: "A"[A2e2] ef edcd | [e2c]A4 ef | =gfec BAFA | [E2A] EF [E2A] EF |
A2 AB AFEF | ABAF [E2A] AB | "E"cBAc BAGB | [1 "A"[E2A] EF ABcd:| [2 "A"[A6E] cB ||
|:[P:B Part]"A"ABAF EDCE |"D"=F^F A2 "A"E2 EE | E2 EE F2 A2 | {=c}c2 {=c}c4 B2 |
ABAF EDCE  |"D"=F^FAF "A"E2 AB | "E"cBAc BAGB | [1 "A"[A6E] cB:| [2 "A"[E2A] [EA][EA] [E4A]|]
% abcbook-tune_id 6298c25dd3f4e33693c2f8c3


% abcbook-boost 0
% abcbook-tablature 
% abcbook-transpose 
% abcbook-lastupdated 1654178398311
% abcbook-soundfonts 
% abcbook-repeats 1


